X: 824
T: Alastair Of The Den
R: polka
M: 2/4
K: Bminor
|:"Bm"BB/B/ d2|"A"cB c2|"C#m"ee/e/ "F#m"AA|"C#m"ee/e/ "F#m"AA|
"Bm"BB/B/ d2|"A"cB cd/e/|"Bm"fd "A"ec|"Bm"B2 B2:|
|:"Bm"f>e Bd/e/|fe B2|"A"e>c Ac/d/|ec A2|
"Bm"f>e Bd/e/|fe Bd/e/|fd "A"ec|"Bm"B2 B2:|

